X: 34308
T: Retiro, The
R: jig
M: 6/8
K: Cdorian
G,|:CDE DCB,|GEF GBc|ded cAG|FDB, FD=B,|
CDE DCB,|GEF GBc|cBG FDB,|~C7 B,:|
|:B,DF DB,D|C3 B,DF|CEG GBc|cBG FDB,|
B,DF DB,D|C3 B,DF|CEG _A,FE|B,ED C3:|

